X:21
T:Clach-Na-Cuddin
C:Var. by J.S.S.
R: strathspey
M:C
L:1/8
Z: Jason R. Fruit <jason@starlight-glimmer>
K:D
A, !segno!|: {C}[DD]2 F>E .D2 .A,2 | D2 (F>G) AD F<d | [DD]2 F>E D2 D/E/F | GA,FA, EA,CE :| "^*"[DD]2 (F>E) D2A,2 |
[DD]2 F>E (3DFG (3ABc | (3dAG (3FGE (3DFA (3dAF | GA,FA, EA,CE || d>f A>f d/e/f/g/ a>f | d>fe>g fdfa |
d>fA>f d/e/f/g/ a>f | gAfA eAce | d>fD>f d/e/f/g/ af | dfeg fdfa | BgAf GeFd | GA,FA, EA,C A !D.S.!||
"^alternate for second-to-last-measure"B/g/g A/f/f G/e/e F/d/d|
%%text *Bars 5-8 to be played _only_ when first 4 bars are not repeated.

